X:380
T:Miss Drummond of Perth's Favorite Scotch Measure
R:March
M:4/4
L:1/8
K:Gm
GA |\
"Gm" B2 AB G2 GA | B2 Bc d2 cB | "F" A2 f2      F2 G2 |     ABcF "D"  D2GA |
"Gm" B2 AB G^FGA | BA Bc d2 ef |g2 d2 "Cm" edcB  | "D" A4   "Gm" G2   :|
|: (3D=E^F |\
"Gm" G^FGA BABc | dcBA GABG  | "F" Ac=Fc    AGAF  | fgac "D"  ABcA |
"Gm" G^FGA BABc | dcBA GABG  | "A" ABcA "D" d2 cB | A4   "Gm" G2  ::
g^f |\
"Gm" gdgd      gdgd   |      B2 AB      G2 d=e |"F"  fcfc       fcfc   |      A2 GA F2 ga |
"Gm" b2 ag "F" a2 g^f | "Eb" g2 ab "Dm" d2 cB  | "Cm" c2 g2 "Dm" G2 g^f | "Gm" g4      G2 :|
